svg/Octicons/sign-in.svg

<svg xmlns="http://www.w3.org/2000/svg" viewBox="0 0 896 1024"><path d="m640 576v-128h256v-128h-256v-128l-192 144v-144l-256-128h512v192h64v-256h-704v832l384 192v-192h320v-320h-64v256h-256v-336z"/></svg>

<svg height="1024" width="896" xmlns="http://www.w3.org/2000/svg">
  <path d="M640 576L640 448 896 448 896 320 640 320 640 192 448 336 448 192 192 64 704 64 704 256 768 256 768 0 64 0 64 832 448 1024 448 832 768 832 768 512 704 512 704 768 448 768 448 432z" />
</svg>
